X:1
T:Title
%%score { 1 | ( 2 3 ) }
L:1/8
Q:1/4=132
M:6/4
K:Ab
V:1 treble nm="Grand Piano"
V:2 bass 
V:3 bass 
V:1
 [Ec]2 [Ec]2 [Ec]2 [Fd]2 [Ec]2 [EB]2 | [FA]2 [EG]2 [DF]2 [CE]6 | E2 B2 B2 .B6 | A2 c2 c2 .c6 | %4
w: E.~G.~Young * * * * *||||
 [Ec]2 [Ec]2 [Ec]2 [Fd]2 [Ec]2 [EB]2 | [FA]2 [EG]2 [DF]2 [CE]6 | E2 B2 B2 c4 B2 | [CA]12 | %8
w: ||||
 c2 e2 e2 e3 f e2 | [Ec]4 [Ec]2 [DB]2 [CA]4 | c2 e2 e2 e3 f e2 | c2 B2 A2 B6 | %12
w: ||||
 [Ec]2 [Ec]2 [Ec]2 [Fd]2 [Ec]2 [EB]2 |[M:13/8] [FA]2 [EG]2 [DF]2 [CE]2 [Ee]3 [Fd]2 | %14
w: ||
[M:6/4] c2 c4 B4 B2 | [CA]12 |] %16
w: ||
V:2
 [A,,A,]2 [A,,A,]2 [A,,A,]2 [A,,A,]2 [A,,A,]2 [C,A,]2 | [D,A,]2 [D,A,]2 [D,A,]2 [A,,A,]6 | %2
 [E,G,D]4 [E,G,D]2 .[E,G,D]6 | A,2- [A,E]2 [A,E]2 .[A,E]6 | %4
 [A,,A,]2 [A,,A,]2 [A,,A,]2 [A,,A,]2 [A,,A,]2 [C,A,]2 | [D,A,]2 [D,A,]2 [D,A,]2 [A,,A,]6 | %6
 [E,G,D]4 [E,G,D]2 [E,G,E]4 [E,G,D]2 | [A,,A,]12 | [A,E]2 [A,CE]2 [A,CE]2 [A,A]3- [A,DA] [A,CA]2 | %9
 [A,,A,]4 [A,,A,]2 [A,,A,]2 [A,,A,]4 | [A,E]2[K:treble] [A,CE]2 [A,CE]2 [A,CA]3 [A,DA] [A,CA]2 | %11
 .E6 z6 | [A,,A,]2 [A,,A,]2 [A,,A,]2 [A,,A,]2 [A,,A,]2 [C,A,]2 | %13
[M:13/8] [D,A,]- [D,A,]3 [D,A,]2 [A,,A,]2 [C,A,]3 [D,A,]2 | %14
[M:6/4] [E,A,E]2 [E,A,E]4 [E,G,D]4 [E,G,D]2 | [A,,A,]12 |] %16
V:3
 x12 | x12 | x12 | .C6 z6 | x12 | x12 | x12 | x12 | z6 .C6 | x12 | x2[K:treble] x10 | %11
 A,2 [G,B,]2 [F,B,=D]2 [E,G,E]6 | x12 |[M:13/8] x13 |[M:6/4] x12 | x12 |] %16

